X:1
T:87tresVoces
T:
I:linebreak !
L:1/4
K:Ebmaj
V:1 clef=treble
z2 e2 |d2 e2 |f2 d2|c2 g2|f2 e2|d2B2|c2G2|=A2=B2|c4|
V:2 clef=treble
G4 |A4 |F4|E4|D4|B,4|E4|F4|E4|
V:3 clef=bass
C,4 |F,4 |D,4|E,4|F,4|G,4|E,4|D,4|C,4|
W:En el compás 2 del ejemplo 87 la nota mib y, consecuentemente, el
W:acorde que resulta sobre el segundo tiempo, 
W:se usa en una función de paso de 1er tiempo a 1er tiempo. 
W:En el compás 6, l a nota si sobre el segundo tiempo sirve 
W:para retardar el movimiento entre las notas re y do, 
W:que de otra manerá serian directamente adyacentes. 
W:De lo cual resulta q el acorde en sí mismo toma carácter de retardación.